raw-svg/cart-minus.svg

<svg fill="none" height="24" viewBox="0 0 24 24" width="24" xmlns="http://www.w3.org/2000/svg"><path clip-rule="evenodd" d="m4 3.75c-.41421 0-.75.33579-.75.75s.33579.75.75.75h1.37407l1.88803 10.3842c.06484.3566.37544.6158.7379.6158h10c.3442 0 .6441-.2342.7276-.5681l2-8c.056-.22405.0057-.46142-.1364-.64346-.1422-.18204-.3602-.28844-.5912-.28844h-12.82861l-.43349-2.38416c-.06484-.35662-.37544-.61584-.7379-.61584zm4.62593 11-1.18182-6.5h11.59529l-1.625 6.5zm2.51407-4c-.4142 0-.75.3358-.75.75s.3358.75.75.75h4c.4142 0 .75-.3358.75-.75s-.3358-.75-.75-.75zm-1.39 6.5c-.82843 0-1.5.6716-1.5 1.5s.67157 1.5 1.5 1.5c.8284 0 1.5-.6716 1.5-1.5s-.6716-1.5-1.5-1.5zm5 1.5c0-.8284.6716-1.5 1.5-1.5s1.5.6716 1.5 1.5-.6716 1.5-1.5 1.5-1.5-.6716-1.5-1.5z" fill="#000" fill-rule="evenodd"/></svg>

<svg width="24" height="24" viewBox="0 0 24 24" fill="none" xmlns="http://www.w3.org/2000/svg">
<path fill-rule="evenodd" clip-rule="evenodd" d="M4 3.75C3.58579 3.75 3.25 4.08579 3.25 4.5C3.25 4.91421 3.58579 5.25 4 5.25H5.37407L7.2621 15.6342C7.32694 15.9908 7.63754 16.25 8 16.25H18C18.3442 16.25 18.6441 16.0158 18.7276 15.6819L20.7276 7.6819C20.7836 7.45785 20.7333 7.22048 20.5912 7.03844C20.449 6.8564 20.231 6.75 20 6.75H7.17139L6.7379 4.36584C6.67306 4.00922 6.36246 3.75 6 3.75H4ZM8.62593 14.75L7.44411 8.25H19.0394L17.4144 14.75H8.62593ZM11.14 10.75C10.7258 10.75 10.39 11.0858 10.39 11.5C10.39 11.9142 10.7258 12.25 11.14 12.25H15.14C15.5542 12.25 15.89 11.9142 15.89 11.5C15.89 11.0858 15.5542 10.75 15.14 10.75H11.14ZM9.75 17.25C8.92157 17.25 8.25 17.9216 8.25 18.75C8.25 19.5784 8.92157 20.25 9.75 20.25C10.5784 20.25 11.25 19.5784 11.25 18.75C11.25 17.9216 10.5784 17.25 9.75 17.25ZM14.75 18.75C14.75 17.9216 15.4216 17.25 16.25 17.25C17.0784 17.25 17.75 17.9216 17.75 18.75C17.75 19.5784 17.0784 20.25 16.25 20.25C15.4216 20.25 14.75 19.5784 14.75 18.75Z" fill="black"/>
</svg>
